svgs/duotone/raygun.svg

<svg xmlns="http://www.w3.org/2000/svg" viewBox="0 0 576 512"><!-- Font Awesome Pro 6.0.0-alpha2 by @fontawesome - https://fontawesome.com License - https://fontawesome.com/license (Commercial License) --><defs><style>.fa-secondary{opacity:.4}</style></defs><path d="M320 31.965H304C295.25 31.965 288 39.092 288 47.967V303.998C288 312.75 295.25 320 304 320H320C328.75 320 335.875 313 336 304.248V47.717C335.875 38.967 328.75 31.965 320 31.965ZM400 63.969H384C375.25 63.969 368 71.096 368 79.971V271.994C368 280.746 375.25 287.996 384 287.996H400C408.875 287.996 416 280.746 416 271.994V79.971C416 71.096 408.875 63.969 400 63.969ZM64 16.025V75.191C78.598 68.223 94.746 64 112 64H191.057L88.232 2.305C77.568 -4.094 64 3.588 64 16.025Z" class="fa-secondary"/><path d="M569.375 119.432C565.125 116.43 559.875 115.555 555 117.182H554.875L480 142.184H416V206.191H480.125L554.875 231.195C559.75 232.82 565.125 231.945 569.375 228.943C573.5 225.943 576 221.068 576 215.943V132.432C576 127.182 573.5 122.432 569.375 119.432ZM112 64C50.145 64 0 114.145 0 176C0 235.26 46.17 283.27 104.424 287.236L33.939 408.016C27.564 419.016 25.814 432.143 29.189 444.395C32.439 456.771 40.564 467.271 51.564 473.523L106.939 505.527C118.064 511.902 131.064 513.652 143.439 510.402C155.689 507.027 166.189 499.025 172.564 488.025L288 288V75.191C273.402 68.223 257.254 64 240 64H112ZM112 199.99C98.75 199.99 88 189.238 88 175.988C88 162.736 98.75 151.984 112 151.984S136 162.736 136 175.988C136 189.238 125.25 199.99 112 199.99ZM208 199.99C194.75 199.99 184 189.238 184 175.988C184 162.736 194.75 151.984 208 151.984S232 162.736 232 175.988C232 189.238 221.25 199.99 208 199.99Z" class="fa-primary"/></svg>

<svg xmlns="http://www.w3.org/2000/svg" viewBox="0 0 576 512"><!--! Font Awesome Pro 6.3.0 by @fontawesome - https://fontawesome.com License - https://fontawesome.com/license (Commercial License) Copyright 2023 Fonticons, Inc. --><defs><style>.fa-secondary{opacity:.4}</style></defs><path class="fa-primary" d="M569.4 119.4c-4.25-3.002-9.5-3.877-14.38-2.25L480 142.2h-64v64.01h64.13l74.75 25c4.875 1.625 10.25 .751 14.5-2.251C573.5 225.9 576 221.1 576 215.9V132.4C576 127.2 573.5 122.4 569.4 119.4zM112 64.01c-61.86 0-112 50.14-112 111.1c0 59.26 46.17 107.3 104.4 111.2l-70.48 120.8c-6.375 11-8.125 24.13-4.75 36.38c3.25 12.38 11.38 22.88 22.38 29.13l55.38 32c11.12 6.375 24.12 8.125 36.5 4.875c12.25-3.375 22.75-11.38 29.12-22.38L288 288V75.21C273.4 68.24 257.3 64.01 240 64.01L112 64.01zM112 199.1c-13.25 0-24-10.75-24-24c0-13.25 10.75-24 24-24s24 10.75 24 24C136 189.2 125.3 199.1 112 199.1zM208 199.1c-13.25 0-24-10.75-24-24c0-13.25 10.75-24 24-24s24 10.75 24 24C232 189.2 221.3 199.1 208 199.1z"/><path class="fa-secondary" d="M320 31.97h-16c-8.75 0-16 7.128-16 16v256c0 8.752 7.25 16 16 16H320c8.75 0 15.88-6.999 16-15.75V47.72C335.9 38.97 328.8 31.97 320 31.97zM400 63.99L384 63.97c-8.75 0-16 7.126-16 16v192c0 8.752 7.25 16 16 16L400 288c8.875 0 16-7.25 16-16V79.99C416 71.12 408.9 63.99 400 63.99zM64 16.01v59.22c14.6-6.969 30.75-11.22 48-11.22l79.06-.0078L88.23 2.309C77.57-4.09 64 3.573 64 16.01z"/></svg>
